Origami/24x24/apps/ukuu.svg

<svg width="24" height="24" version="1" xmlns="http://www.w3.org/2000/svg">
 <path d="m12.028734 3.5003743c-0.906941-0.00836-1.774231 0.126891-2.5840496 0.3494517-3.2433327 0.8763028-5.5964797 3.4993168-6.4442347 6.64267-1.744703 0.444836-2.62296 2.545416-1.497539 4.06147l2.360597 3.17702 1e-3 1e-3c0.36069 0.483863 0.891009 0.773372 1.465763 0.921563 0.103917 0.606862 0.297331 1.207627 0.712382 1.681283 0.108699 0.124349 0.228837 0.238462 0.358753 0.340175 2.3419197 1.829375 5.3544973 2.208219 8.0247993 1.470995 3.301113-0.840926 5.703235-3.487582 6.565187-6.669473 1.751151-0.440585 2.634689-2.550315 1.502665-4.068686l-2.360598-3.1636099c-0.320319-0.4289818-0.762727-0.7490189-1.268962-0.9184695-0.0014-3.577e-4 -0.0027-6.861e-4 -0.0041-0.00101-0.03793-0.012343-0.07713-0.020293-0.116851-0.023709-0.03099-0.00867-0.06303-0.012091-0.0943-0.019588-0.106067-0.5679153-0.289256-1.131214-0.679581-1.5833523-0.111339-0.1293252-0.234942-0.2472769-0.369014-0.3525449-1.66096-1.2998557-3.658623-1.8388241-5.568877-1.8451861z" style="opacity:.2"/>
 <path d="m12.028734 3.0003737c-0.906941-0.008363-1.774231 0.126891-2.5840496 0.3494517-3.2433327 0.8763028-5.5964797 3.4993168-6.4442347 6.6426708-1.744703 0.4448358-2.62296 2.5454158-1.497539 4.0614698l2.360597 3.17702 1e-3 1e-3c0.36069 0.483863 0.891009 0.773372 1.465763 0.921563 0.103917 0.606862 0.297331 1.207627 0.712382 1.681283 0.108699 0.124349 0.228837 0.238462 0.358753 0.340175 2.3419197 1.829375 5.3544973 2.208219 8.0247993 1.470995 3.301113-0.840926 5.703235-3.487582 6.565187-6.669473 1.751151-0.440585 2.634689-2.550315 1.502665-4.068686l-2.360598-3.1636105c-0.320319-0.4289818-0.762727-0.7490189-1.268962-0.9184695-0.0014-3.577e-4 -0.0027-6.861e-4 -0.0041-0.00101-0.03793-0.012343-0.07713-0.020293-0.116851-0.023709-0.03099-0.00867-0.06303-0.012091-0.0943-0.019588-0.106067-0.5679153-0.289256-1.131214-0.679581-1.5833523-0.111339-0.1293252-0.234942-0.2472769-0.369014-0.3525449-1.66096-1.2998557-3.658623-1.8388241-5.568877-1.8451861z" style="fill:#29dc47"/>
 <path d="m12 6.5c-3.3137085 0-6 2.6862915-6 6h-2l1.5 2 1.5 2 1.5-2 1.5-2h-2c0-2.209139 1.790861-4 4-4 0.713507 0.00205 1.413478 0.095303 2.027344 0.4589844 0.283853 0.1359327 0.76521 0.4410427 0.972656 0.5410156 0.552285 0 1-0.4477153 1-1-1.92e-4 -0.3698733-0.204529-0.7094344-0.53125-0.8828125l2e-3 -0.00195c-1.01333-0.7227149-2.226183-1.1124509-3.47075-1.1152375zm5 3-1.5 2-1.5 2h2c0 2.209139-1.790861 4-4 4-0.713507-0.0021-1.413478-0.0953-2.0273438-0.458984-0.283853-0.135933-0.7652102-0.441043-0.9726562-0.541016-0.552285 0-1 0.447715-1 1 1.92e-4 0.369873 0.204529 0.709434 0.53125 0.882812l-0.00195 2e-3c1.0132799 0.722715 2.226133 1.112401 3.4707 1.115188 3.313709 0 6-2.686291 6-6h2l-1.5-2z" style="opacity:.2"/>
 <path d="m12 6c-3.3137085 0-6 2.6862915-6 6h-2l1.5 2 1.5 2 1.5-2 1.5-2h-2c0-2.209139 1.790861-4 4-4 0.713507 0.00205 1.413478 0.0953027 2.027344 0.4589844 0.283853 0.1359327 0.76521 0.4410427 0.972656 0.5410156 0.552285 0 1-0.4477153 1-1-1.92e-4 -0.3698733-0.204529-0.7094344-0.53125-0.8828125l0.001953-0.0019531c-1.013283-0.7227118-2.226136-1.1124478-3.470703-1.1152344zm5 3l-1.5 2-1.5 2h2c0 2.209139-1.790861 4-4 4-0.713507-0.0021-1.413478-0.095304-2.0273438-0.458984-0.283853-0.135933-0.7652102-0.441043-0.9726562-0.541016-0.552285 0-1 0.447715-1 1 1.92e-4 0.369873 0.204529 0.709434 0.53125 0.882812l-0.0019531 0.001954c1.013283 0.722761 2.2261361 1.112447 3.4707031 1.115234 3.313709 0 6-2.686291 6-6h2l-1.5-2-1.5-2z" style="fill:#3f3f3f"/>
 <path d="m12.029297 3c-0.906941-0.008363-1.774166 0.1270487-2.5839845 0.3496094-3.2433327 0.8763028-5.5975575 3.4992241-6.4453125 6.6425781-1.3127239 0.3346965-2.1312065 1.6061885-1.9785156 2.8613285 0.0862162-1.076312 0.8414429-2.071416 1.9785156-2.361328 0.847755-3.1433537 3.2019798-5.7662758 6.4453125-6.6425786 0.8098185-0.2225607 1.6770435-0.3579694 2.5839845-0.3496094h0.001953c1.910254 0.006362 3.909353 0.5458474 5.570312 1.8457031 0.134072 0.105268 0.255849 0.2222373 0.367188 0.3515625 0.390325 0.4521383 0.573621 1.0160691 0.679688 1.5839844 0.03127 0.007497 0.064713 0.0108612 0.095703 0.0195312 0.039721 0.0034161 0.079257 0.0110945 0.117187 0.0234376 0.0014 3.239e-4 0.002506 0.0015954 0.003906 0.0019531 0.506235 0.1694506 0.94726 0.4889869 1.267578 0.9179687l2.361329 3.1640624c0.280292 0.375954 0.433794 0.788977 0.484375 1.203125 0.045815-0.576302-0.090472-1.174787-0.484375-1.703125l-2.361329-3.1640624c-0.320318-0.4289818-0.761343-0.7485181-1.267578-0.9179687-0.0014-3.577e-4 -0.002506-0.0016292-0.003906-0.0019531-0.03793-0.0123431-0.077466-0.0200215-0.117187-0.0234376-0.03099-0.00867-0.064433-0.0120342-0.095703-0.0195312-0.106068-0.5679153-0.289363-1.1318461-0.679688-1.5839844-0.111339-0.1293252-0.233116-0.2462945-0.367188-0.3515625-1.660959-1.2998557-3.660058-1.8393411-5.570312-1.8457031h-0.001953z" style="fill:#ffffff;opacity:.2"/>
</svg>

<svg xmlns="http://www.w3.org/2000/svg" width="24" height="24" version="1">
 <path style="opacity:0.2" d="m 12.028734,3.5003743 c -0.906941,-0.00836 -1.774231,0.126891 -2.5840496,0.3494517 -3.2433327,0.8763028 -5.5964797,3.4993168 -6.4442347,6.64267 -1.744703,0.444836 -2.62296004,2.545416 -1.497539,4.06147 l 2.360597,3.17702 10e-4,10e-4 c 0.36069,0.483863 0.891009,0.773372 1.465763,0.921563 0.103917,0.606862 0.297331,1.207627 0.712382,1.681283 0.108699,0.124349 0.228837,0.238462 0.358753,0.340175 2.3419197,1.829375 5.3544973,2.208219 8.0247993,1.470995 3.301113,-0.840926 5.703235,-3.487582 6.565187,-6.669473 1.751151,-0.440585 2.634689,-2.550315 1.502665,-4.068686 L 20.133459,8.2442331 C 19.81314,7.8152513 19.370732,7.4952142 18.864497,7.3257636 c -0.0014,-3.577e-4 -0.0027,-6.861e-4 -0.0041,-0.00101 -0.03793,-0.012343 -0.07713,-0.020293 -0.116851,-0.023709 -0.03099,-0.00867 -0.06303,-0.012091 -0.0943,-0.019588 C 18.543179,6.7135413 18.35999,6.1502426 17.969665,5.6981043 17.858326,5.5687791 17.734723,5.4508274 17.600651,5.3455594 15.939691,4.0457037 13.942028,3.5067353 12.031774,3.5003733 Z"/>
 <path style="fill:#29dc47" d="M 12.028734,3.0003737 C 11.121793,2.9920107 10.254503,3.1272647 9.4446844,3.3498254 6.2013517,4.2261282 3.8482047,6.8491422 3.0004497,9.9924962 1.2557467,10.437332 0.37748966,12.537912 1.5029107,14.053966 l 2.360597,3.17702 10e-4,10e-4 c 0.36069,0.483863 0.891009,0.773372 1.465763,0.921563 0.103917,0.606862 0.297331,1.207627 0.712382,1.681283 0.108699,0.124349 0.228837,0.238462 0.358753,0.340175 2.3419197,1.829375 5.3544973,2.208219 8.0247993,1.470995 3.301113,-0.840926 5.703235,-3.487582 6.565187,-6.669473 1.751151,-0.440585 2.634689,-2.550315 1.502665,-4.068686 L 20.133459,7.7442325 C 19.81314,7.3152507 19.370732,6.9952136 18.864497,6.825763 c -0.0014,-3.577e-4 -0.0027,-6.861e-4 -0.0041,-0.00101 C 18.822467,6.81241 18.783267,6.80446 18.743546,6.801044 18.712556,6.792374 18.680516,6.788953 18.649246,6.781456 18.543179,6.2135407 18.35999,5.650242 17.969665,5.1981037 17.858326,5.0687785 17.734723,4.9508268 17.600651,4.8455588 15.939691,3.5457031 13.942028,3.0067347 12.031774,3.0003727 Z"/>
 <path style="opacity:0.2" d="m 12,6.5 c -3.3137085,0 -6,2.6862915 -6,6 H 4 l 1.5,2 1.5,2 1.5,-2 1.5,-2 H 8 c 0,-2.209139 1.790861,-4 4,-4 0.713507,0.00205 1.413478,0.095303 2.027344,0.4589844 C 14.311197,9.0949171 14.792554,9.4000271 15,9.5 c 0.552285,0 1,-0.4477153 1,-1 -1.92e-4,-0.3698733 -0.204529,-0.7094344 -0.53125,-0.8828125 l 0.002,-0.00195 C 14.45742,6.8925226 13.244567,6.5027866 12,6.5 Z m 5,3 -1.5,2 -1.5,2 h 2 c 0,2.209139 -1.790861,4 -4,4 C 11.286493,17.4979 10.586522,17.4047 9.9726562,17.041016 9.6888032,16.905083 9.207446,16.599973 9,16.5 c -0.552285,0 -1,0.447715 -1,1 1.92e-4,0.369873 0.204529,0.709434 0.53125,0.882812 l -0.00195,0.002 C 9.5425799,19.107527 10.755433,19.497213 12,19.5 c 3.313709,0 6,-2.686291 6,-6 h 2 l -1.5,-2 z"/>
 <path style="fill:#3f3f3f" d="M 12 6 C 8.6862915 6 6 8.6862915 6 12 L 4 12 L 5.5 14 L 7 16 L 8.5 14 L 10 12 L 8 12 C 8 9.790861 9.790861 8 12 8 C 12.713507 8.00205 13.413478 8.0953027 14.027344 8.4589844 C 14.311197 8.5949171 14.792554 8.9000271 15 9 C 15.552285 9 16 8.5522847 16 8 C 15.999808 7.6301267 15.795471 7.2905656 15.46875 7.1171875 L 15.470703 7.1152344 C 14.45742 6.3925226 13.244567 6.0027866 12 6 z M 17 9 L 15.5 11 L 14 13 L 16 13 C 16 15.209139 14.209139 17 12 17 C 11.286493 16.9979 10.586522 16.904696 9.9726562 16.541016 C 9.6888032 16.405083 9.207446 16.099973 9 16 C 8.447715 16 8 16.447715 8 17 C 8.000192 17.369873 8.204529 17.709434 8.53125 17.882812 L 8.5292969 17.884766 C 9.5425799 18.607527 10.755433 18.997213 12 19 C 15.313709 19 18 16.313709 18 13 L 20 13 L 18.5 11 L 17 9 z"/>
 <path style="fill:#ffffff;opacity:0.2" d="M 12.029297 3 C 11.122356 2.991637 10.255131 3.1270487 9.4453125 3.3496094 C 6.2019798 4.2259122 3.847755 6.8488335 3 9.9921875 C 1.6872761 10.326884 0.86879353 11.598376 1.0214844 12.853516 C 1.1077006 11.777204 1.8629273 10.7821 3 10.492188 C 3.847755 7.3488343 6.2019798 4.7259122 9.4453125 3.8496094 C 10.255131 3.6270487 11.122356 3.49164 12.029297 3.5 L 12.03125 3.5 C 13.941504 3.506362 15.940603 4.0458474 17.601562 5.3457031 C 17.735634 5.4509711 17.857411 5.5679404 17.96875 5.6972656 C 18.359075 6.1494039 18.542371 6.7133347 18.648438 7.28125 C 18.679708 7.288747 18.713151 7.2921112 18.744141 7.3007812 C 18.783862 7.3041973 18.823398 7.3118757 18.861328 7.3242188 C 18.862728 7.3245427 18.863834 7.3258142 18.865234 7.3261719 C 19.371469 7.4956225 19.812494 7.8151588 20.132812 8.2441406 L 22.494141 11.408203 C 22.774433 11.784157 22.927935 12.19718 22.978516 12.611328 C 23.024331 12.035026 22.888044 11.436541 22.494141 10.908203 L 20.132812 7.7441406 C 19.812494 7.3151588 19.371469 6.9956225 18.865234 6.8261719 C 18.863834 6.8258142 18.862728 6.8245427 18.861328 6.8242188 C 18.823398 6.8118757 18.783862 6.8041973 18.744141 6.8007812 C 18.713151 6.7921112 18.679708 6.788747 18.648438 6.78125 C 18.54237 6.2133347 18.359075 5.6494039 17.96875 5.1972656 C 17.857411 5.0679404 17.735634 4.9509711 17.601562 4.8457031 C 15.940603 3.5458474 13.941504 3.006362 12.03125 3 L 12.029297 3 z"/>
</svg>
